X:480
T: TREULIEB IST NIMMER WEIT
N: F0908
O: Europa, Mitteleuropa, Deutschland
R: Liebes - Lied
M: 6/8
L: 1/16
K: Eb
B2 | G4G2B3AGF | E8z2
E2 | e2d2c2c2B2=A2 | B6
G2e2c2 | B4edc4dc | B8z2
c2 | B2A2G2B2A2G2 | A12 |
G4B2B2A2A2 | G2B2e2e2d2d2 |
e4_d2c6 | c2B2D2E4

@@@ Tune index: 5911
